src/images/icon-char-3.v2.svg

<svg width="65" height="48" viewBox="0 0 65 48" fill="none" xmlns="http://www.w3.org/2000/svg">
<path d="M32.0998 31.1L31.7998 32C31.3998 33.3 31.0998 34.5 30.6998 35.7C30.4998 36.4 30.2998 37.1 29.9998 37.7C29.6998 38.3 29.3998 39 28.9998 39.6C28.2998 40.7 27.5998 41.9 26.8998 43C26.2998 44 25.5998 45.1 24.9998 46.1C24.6998 46.5 24.3998 46.9 23.9998 47.2C23.4998 47.6 22.7998 47.8 22.1998 47.8C21.5998 47.8 20.9998 47.7 20.3998 47.3C19.9998 47.1 19.6998 46.7 19.3998 46.3C18.8998 45.6 18.7998 45 18.7998 44.3C18.7998 43.6 19.0998 43 19.3998 42.4L19.4998 42.2C20.1998 40.9 20.9998 39.5 21.7998 38.2C22.6998 36.9 23.3998 35.5 23.8998 34.1C24.4998 32.7 24.8998 31.2 25.2998 29.6C25.8998 27 26.5998 24.4 27.1998 21.9C27.4998 20.9 27.6998 19.8 27.9998 18.6C27.7998 18.7 27.6998 18.7 27.5998 18.8C27.2998 19 27.0998 19.3 26.9998 19.7C26.5998 21 26.0998 22.3 25.5998 23.5C25.3998 24 25.1998 24.5 24.9998 25C24.6998 25.8 24.1998 26.4 23.4998 26.7C22.8998 27 22.0998 27 21.2998 26.7C20.5998 26.4 20.1998 25.9 19.9998 25.3C19.7998 24.7 19.7998 24 20.0998 23.2V23.1L20.8998 21.2C21.4998 19.7 22.1998 18.1 22.7998 16.4C22.9998 15.8 23.2998 15.2 23.6998 14.7C24.0998 14.2 24.5998 13.7 25.0998 13.4C25.5998 13.1 26.0998 12.7 26.6998 12.3C27.8998 11.5 29.0998 10.7 30.3998 9.9C31.3998 9.3 32.4998 9 33.4998 9C34.6998 9 35.7998 9.3 36.8998 9.8C37.2998 10 37.5998 10.3 37.8998 10.6C38.2998 11 38.5998 11.5 38.7998 11.9C39.4998 13.2 40.0998 14.5 40.7998 15.8C41.1998 16.7 41.5998 17.5 42.0998 18.4C42.1998 18.6 42.2998 18.7 42.3998 18.8C42.4998 18.9 42.6998 19.1 42.7998 19.2C43.6998 19.8 44.4998 20.3 45.3998 20.9C45.8998 21.2 46.4998 21.6 46.8998 21.9C47.2998 22.2 47.6998 22.5 47.8998 22.9C48.0998 23.3 48.1998 23.8 48.1998 24.4C48.1998 24.6 48.0998 24.8 48.0998 25C47.8998 25.5 47.5998 26 47.0998 26.2C46.6998 26.5 46.0998 26.6 45.5998 26.6C45.3998 26.6 45.1998 26.5 44.9998 26.5C44.7998 26.4 44.6998 26.4 44.4998 26.3C44.3998 26.2 44.1998 26.1 44.0998 26.1C43.7998 25.9 43.5998 25.8 43.2998 25.6C42.8998 25.3 42.4998 25.1 42.0998 24.9C41.0998 24.3 40.0998 23.7 39.1998 23C38.3998 22.3 37.6998 21.5 37.0998 20.6C36.9998 21.3 36.8998 22 36.6998 22.6C36.3998 23.5 36.2998 24.3 36.4998 25.1C36.6998 25.9 37.1998 26.6 37.7998 27.3C39.1998 28.8 40.3998 30.5 41.4998 32.1L41.8998 32.7C42.0998 33 42.3998 33.4 42.4998 33.8C42.6998 34.2 42.7998 34.6 42.8998 35.1C43.2998 37.3 43.5998 39.5 43.9998 41.7C44.0998 42.5 44.1998 43.3 44.3998 44.2C44.5998 45.2 44.3998 46.1 43.8998 46.7C43.3998 47.3 42.6998 47.7 41.5998 47.9C40.6998 48 39.7998 47.9 39.1998 47.4C38.5998 46.9 38.0998 46.2 37.8998 45.2C37.7998 44.4 37.5998 43.5 37.3998 42.5C37.1998 41.6 37.0998 40.7 36.8998 39.8C36.8998 39.6 36.7998 39.3 36.7998 39C36.6998 38.2 36.4998 37.5 36.3998 36.7C36.3998 36.4 36.2998 36.1 36.0998 35.8C35.9998 35.5 35.7998 35.3 35.4998 35C34.4998 34 33.4998 32.8 32.3998 31.7C32.5998 31.6 32.3998 31.4 32.0998 31.1ZM30.9998 31.8C31.0998 31.4 31.2998 30.9 31.4998 30.1L31.5998 29.8H32.0998L32.1998 29.9C32.3998 30.1 32.8998 30.7 33.3998 31.2C34.3998 32.3 35.3998 33.4 36.3998 34.5C36.6998 34.8 36.8998 35.1 37.0998 35.5C37.2998 35.8 37.3998 36.2 37.4998 36.7C37.5998 37.4 37.6998 38.2 37.8998 39C37.8998 39.2 37.9998 39.4 37.9998 39.8C38.1998 40.7 38.2998 41.6 38.4998 42.5C38.5998 43.3 38.7998 44.2 38.9998 45.2C39.0998 45.9 39.3998 46.5 39.8998 46.8C40.3998 47.1 40.9998 47.3 41.5998 47.2C42.3998 47.1 42.9998 46.8 43.2998 46.3C43.5998 45.9 43.6998 45.2 43.5998 44.4C43.4998 43.7 43.2998 42.8 43.1998 41.9C42.8998 39.7 42.4998 37.5 42.0998 35.3C41.9998 34.9 41.8998 34.6 41.7998 34.2C41.6998 33.9 41.4998 33.5 41.2998 33.2C41.1998 33.1 41.0998 33 40.8998 32.6C39.7998 31 38.5998 29.3 37.2998 27.9C36.4998 27.1 35.9998 26.2 35.6998 25.3C35.4998 24.4 35.4998 23.4 35.8998 22.3C36.0998 21.7 36.1998 21.1 36.2998 20.5C36.3998 20.2 36.3998 19.8 36.4998 19.5L36.6998 18.6L37.2998 19.3C37.3998 19.4 37.3998 19.4 37.4998 19.5C37.5998 19.6 37.6998 19.7 37.7998 19.9C38.3998 20.8 39.0998 21.6 39.8998 22.3C40.6998 23 41.5998 23.6 42.5998 24.1C43.0998 24.3 43.4998 24.6 43.8998 24.9C44.1998 25.1 44.3998 25.2 44.6998 25.4C44.7998 25.5 44.8998 25.6 45.0998 25.6C45.1998 25.7 45.2998 25.7 45.4998 25.8C45.5998 25.8 45.7998 25.9 45.8998 25.9C46.2998 25.9 46.5998 25.9 46.8998 25.7C47.1998 25.5 47.3998 25.3 47.4998 24.9C47.4998 24.8 47.5998 24.6 47.5998 24.5C47.5998 24.1 47.5998 23.8 47.3998 23.6C47.1998 23.3 46.9998 23.1 46.6998 22.9C46.1998 22.5 45.6998 22.2 45.1998 21.9C44.2998 21.3 43.3998 20.8 42.5998 20.2C42.3998 20.1 42.1998 19.9 41.9998 19.7C41.7998 19.5 41.6998 19.3 41.5998 19.1C41.1998 18.3 40.6998 17.4 40.2998 16.5C39.6998 15.2 38.9998 13.9 38.3998 12.6C38.1998 12.2 37.8998 11.8 37.5998 11.5C37.3998 11.2 37.0998 11 36.7998 10.9C35.7998 10.4 34.7998 10.2 33.7998 10.2C32.8998 10.2 31.9998 10.5 31.0998 11C29.8998 11.7 28.5998 12.6 27.3998 13.4C26.8998 13.7 26.3998 14.1 25.7998 14.5C25.2998 14.8 24.8998 15.2 24.5998 15.6C24.2998 16 23.9998 16.5 23.7998 17.1C23.1998 18.6 22.4998 20.2 21.8998 21.9C21.7998 22.2 21.6998 22.4 21.0998 23.8V23.9C20.8998 24.4 20.8998 25 20.9998 25.4C21.0998 25.8 21.3998 26.1 21.7998 26.3C22.3998 26.5 22.8998 26.5 23.2998 26.3C23.6998 26.1 24.0998 25.7 24.2998 25.1C24.4998 24.7 24.6998 24.2 24.8998 23.7C25.3998 22.5 25.8998 21.2 26.2998 20C26.4998 19.4 26.7998 18.9 27.1998 18.6C27.5998 18.3 28.0998 18.1 28.6998 18L29.3998 17.8L29.0998 18C29.0998 18.1 29.0998 18.2 28.9998 18.3C28.9998 18.4 28.9998 18.6 28.8998 18.7C28.5998 19.7 28.2998 20.9 27.9998 22.1C27.2998 24.7 26.6998 27.2 26.0998 29.8C25.6998 31.4 25.2998 32.9 24.6998 34.4C24.0998 35.9 23.3998 37.3 22.4998 38.7C21.6998 39.9 20.8998 41.3 20.1998 42.6L20.0998 42.8C19.7998 43.3 19.5998 43.8 19.5998 44.4C19.5998 44.9 19.6998 45.4 19.9998 45.9C20.1998 46.2 20.4998 46.5 20.7998 46.7C21.1998 47 21.6998 47.1 22.0998 47.1C22.4998 47.1 22.9998 46.9 23.3998 46.7C23.6998 46.5 23.9998 46.2 24.1998 45.9C24.8998 44.8 25.4998 43.8 26.0998 42.8C26.7998 41.7 27.4998 40.5 28.1998 39.4C28.5998 38.8 28.8998 38.2 29.1998 37.6C29.4998 37 29.6998 36.4 29.8998 35.7C30.1998 34.4 30.5998 33.1 30.9998 31.8Z" fill="#003067"/>
<path d="M40.2001 4.9C40.2001 6.2 39.6001 7.4 38.8001 8.3C37.9001 9.2 36.7001 9.7 35.4001 9.7H35.3001C34.0001 9.7 32.8001 9.1 32.0001 8.3C31.2001 7.4 30.6001 6.2 30.6001 4.9V4.8C30.6001 3.5 31.2001 2.3 32.1001 1.4C33.0001 0.6 34.2001 0 35.5001 0C36.8001 0 38.0001 0.6 38.9001 1.4C39.7001 2.4 40.2001 3.6 40.2001 4.9ZM38.1001 7.7C38.9001 7 39.3001 6 39.3001 4.9C39.3001 3.8 38.9001 2.8 38.2001 2.1C37.5001 1.4 36.5001 1 35.5001 1C34.4001 1 33.4001 1.4 32.7001 2.1C32.0001 2.8 31.5001 3.8 31.5001 4.8V4.9C31.5001 6 31.9001 6.9 32.6001 7.7C33.3001 8.4 34.3001 8.9 35.3001 8.9H35.4001C36.5001 8.8 37.4001 8.4 38.1001 7.7Z" fill="#092E6C"/>
<path d="M56.9002 37.8L51.9002 35.9V36L52.0002 35.9V36L52.1002 35.9C52.1002 35.9 52.0002 35.8 52.0002 35.6C51.9002 35.4 51.9002 35.2 51.9002 35V17.3C51.9002 17.1 51.9002 16.9 52.0002 16.9L51.9002 16.8V17H52.0002L51.9002 16.9V17.1V16.9L51.8002 17.1H51.9002V16.9L51.8002 17.1L56.8002 19L57.1002 18.2L52.1002 16.4L51.6002 16C51.4002 16 51.3002 16.1 51.1002 16.2C50.8002 16.5 50.7002 16.9 50.7002 17.3V35.2C50.7002 35.5 50.8002 35.9 50.9002 36.1C51.0002 36.4 51.2002 36.6 51.5002 36.8L56.5002 38.6L56.9002 37.8Z" fill="#999999"/>
<path d="M56.7002 13.1H56.2002V46.1C56.2002 46.7 56.7002 47.1 57.2002 47.1H61.1002C61.6002 47.1 62.1002 46.6 62.1002 46.1V13.1C62.1002 12.5 61.6002 12.1 61.1002 12.1H57.2002C56.7002 12.1 56.2002 12.6 56.2002 13.1H57.1002L57.2002 13H61.1002L61.2002 13.1V46.1L61.1002 46.2H57.2002L57.1002 46.1V13.1H56.7002Z" fill="#999999"/>
<path d="M7.3 38.6L12.3 36.8C12.7 36.6 12.8 36.4 12.9 36.1C13 35.8 13.1 35.5 13.1 35.2V17.3C13.1 17 13.1 16.7 12.9 16.5L12.7 16.2C12.6 16.1 12.4 16 12.2 16H12L7 17.8L7.3 18.6L12.3 16.7L12.2 16.5V16.7H12.3L12.2 16.5V16.7V16.5L12.1 16.7H12.2V16.5L12.1 16.7C12.1 16.7 12.2 16.9 12.2 17.2V35.1C12.2 35.3 12.1 35.6 12.1 35.7L12 35.9V36V35.9V36V35.9L7 37.8L7.3 38.6Z" fill="#999999"/>
<path d="M6.60019 12.5V12H2.7002C2.2002 12 1.7002 12.5 1.7002 13V46C1.7002 46.6 2.2002 47 2.7002 47H6.60019C7.10019 47 7.60019 46.5 7.60019 46V13C7.60019 12.4 7.10019 12 6.60019 12V13L6.7002 13.1V46.1L6.60019 46.2H2.7002L2.6002 46.1V13.1L2.7002 13H6.60019V12.5Z" fill="#999999"/>
</svg>

<svg xmlns="http://www.w3.org/2000/svg" width="65" height="48" fill="none" viewBox="0 0 65 48">
	<path fill="#003067" d="m32.1 31.1-.3.9c-.4 1.3-.7 2.5-1.1 3.7-.2.7-.4 1.4-.7 2-.3.6-.6 1.3-1 1.9-.7 1.1-1.4 2.3-2.1 3.4-.6 1-1.3 2.1-1.9 3.1-.3.4-.6.8-1 1.1-.5.4-1.2.6-1.8.6-.6 0-1.2-.1-1.8-.5-.4-.2-.7-.6-1-1-.5-.7-.6-1.3-.6-2s.3-1.3.6-1.9l.1-.2c.7-1.3 1.5-2.7 2.3-4 .9-1.3 1.6-2.7 2.1-4.1.6-1.4 1-2.9 1.4-4.5.6-2.6 1.3-5.2 1.9-7.7.3-1 .5-2.1.8-3.3-.2.1-.3.1-.4.2-.3.2-.5.5-.6.9-.4 1.3-.9 2.6-1.4 3.8L25 25c-.3.8-.8 1.4-1.5 1.7-.6.3-1.4.3-2.2 0-.7-.3-1.1-.8-1.3-1.4-.2-.6-.2-1.3.1-2.1v-.1l.8-1.9c.6-1.5 1.3-3.1 1.9-4.8.2-.6.5-1.2.9-1.7s.9-1 1.4-1.3c.5-.3 1-.7 1.6-1.1 1.2-.8 2.4-1.6 3.7-2.4 1-.6 2.1-.9 3.1-.9 1.2 0 2.3.3 3.4.8.4.2.7.5 1 .8.4.4.7.9.9 1.3.7 1.3 1.3 2.6 2 3.9.4.9.8 1.7 1.3 2.6.1.2.2.3.3.4l.4.4c.9.6 1.7 1.1 2.6 1.7.5.3 1.1.7 1.5 1 .4.3.8.6 1 1 .2.4.3.9.3 1.5 0 .2-.1.4-.1.6-.2.5-.5 1-1 1.2-.4.3-1 .4-1.5.4-.2 0-.4-.1-.6-.1-.2-.1-.3-.1-.5-.2-.1-.1-.3-.2-.4-.2-.3-.2-.5-.3-.8-.5-.4-.3-.8-.5-1.2-.7-1-.6-2-1.2-2.9-1.9-.8-.7-1.5-1.5-2.1-2.4-.1.7-.2 1.4-.4 2-.3.9-.4 1.7-.2 2.5s.7 1.5 1.3 2.2c1.4 1.5 2.6 3.2 3.7 4.8l.4.6c.2.3.5.7.6 1.1.2.4.3.8.4 1.3.4 2.2.7 4.4 1.1 6.6.1.8.2 1.6.4 2.5.2 1 0 1.9-.5 2.5-.5.6-1.2 1-2.3 1.2-.9.1-1.8 0-2.4-.5-.6-.5-1.1-1.2-1.3-2.2-.1-.8-.3-1.7-.5-2.7-.2-.9-.3-1.8-.5-2.7 0-.2-.1-.5-.1-.8-.1-.8-.3-1.5-.4-2.3 0-.3-.1-.6-.3-.9-.1-.3-.3-.5-.6-.8-1-1-2-2.2-3.1-3.3.2-.1 0-.3-.3-.6zm-1.1.7c.1-.4.3-.9.5-1.7l.1-.3h.5l.1.1c.2.2.7.8 1.2 1.3l3 3.3c.3.3.5.6.7 1 .2.3.3.7.4 1.2.1.7.2 1.5.4 2.3 0 .2.1.4.1.8.2.9.3 1.8.5 2.7.1.8.3 1.7.5 2.7.1.7.4 1.3.9 1.6.5.3 1.1.5 1.7.4.8-.1 1.4-.4 1.7-.9.3-.4.4-1.1.3-1.9-.1-.7-.3-1.6-.4-2.5-.3-2.2-.7-4.4-1.1-6.6-.1-.4-.2-.7-.3-1.1-.1-.3-.3-.7-.5-1-.1-.1-.2-.2-.4-.6-1.1-1.6-2.3-3.3-3.6-4.7-.8-.8-1.3-1.7-1.6-2.6-.2-.9-.2-1.9.2-3 .2-.6.3-1.2.4-1.8.1-.3.1-.7.2-1l.2-.9.6.7.2.2c.1.1.2.2.3.4.6.9 1.3 1.7 2.1 2.4s1.7 1.3 2.7 1.8c.5.2.9.5 1.3.8.3.2.5.3.8.5.1.1.2.2.4.2.1.1.2.1.4.2.1 0 .3.1.4.1.4 0 .7 0 1-.2.3-.2.5-.4.6-.8 0-.1.1-.3.1-.4 0-.4 0-.7-.2-.9-.2-.3-.4-.5-.7-.7-.5-.4-1-.7-1.5-1-.9-.6-1.8-1.1-2.6-1.7-.2-.1-.4-.3-.6-.5-.2-.2-.3-.4-.4-.6-.4-.8-.9-1.7-1.3-2.6-.6-1.3-1.3-2.6-1.9-3.9-.2-.4-.5-.8-.8-1.1-.2-.3-.5-.5-.8-.6-1-.5-2-.7-3-.7-.9 0-1.8.3-2.7.8-1.2.7-2.5 1.6-3.7 2.4-.5.3-1 .7-1.6 1.1-.5.3-.9.7-1.2 1.1-.3.4-.6.9-.8 1.5-.6 1.5-1.3 3.1-1.9 4.8-.1.3-.2.5-.8 1.9v.1c-.2.5-.2 1.1-.1 1.5.1.4.4.7.8.9.6.2 1.1.2 1.5 0 .4-.2.8-.6 1-1.2.2-.4.4-.9.6-1.4.5-1.2 1-2.5 1.4-3.7.2-.6.5-1.1.9-1.4.4-.3.9-.5 1.5-.6l.7-.2-.3.2c0 .1 0 .2-.1.3 0 .1 0 .3-.1.4-.3 1-.6 2.2-.9 3.4-.7 2.6-1.3 5.1-1.9 7.7-.4 1.6-.8 3.1-1.4 4.6-.6 1.5-1.3 2.9-2.2 4.3-.8 1.2-1.6 2.6-2.3 3.9l-.1.2c-.3.5-.5 1-.5 1.6 0 .5.1 1 .4 1.5.2.3.5.6.8.8.4.3.9.4 1.3.4s.9-.2 1.3-.4c.3-.2.6-.5.8-.8.7-1.1 1.3-2.1 1.9-3.1.7-1.1 1.4-2.3 2.1-3.4.4-.6.7-1.2 1-1.8.3-.6.5-1.2.7-1.9.3-1.3.7-2.6 1.1-3.9z"/>
	<path fill="#092E6C" d="M40.2 4.9c0 1.3-.6 2.5-1.4 3.4-.9.9-2.1 1.4-3.4 1.4h-.1c-1.3 0-2.5-.6-3.3-1.4-.8-.9-1.4-2.1-1.4-3.4v-.1c0-1.3.6-2.5 1.5-3.4C33 .6 34.2 0 35.5 0c1.3 0 2.5.6 3.4 1.4.8 1 1.3 2.2 1.3 3.5zm-2.1 2.8c.8-.7 1.2-1.7 1.2-2.8 0-1.1-.4-2.1-1.1-2.8-.7-.7-1.7-1.1-2.7-1.1-1.1 0-2.1.4-2.8 1.1-.7.7-1.2 1.7-1.2 2.7v.1c0 1.1.4 2 1.1 2.8.7.7 1.7 1.2 2.7 1.2h.1c1.1-.1 2-.5 2.7-1.2z"/>
	<path fill="#999" d="m56.9 37.8-5-1.9v.1l.1-.1v.1l.1-.1s-.1-.1-.1-.3c-.1-.2-.1-.4-.1-.6V17.3c0-.2 0-.4.1-.4l-.1-.1v.2h.1l-.1-.1v.2-.2l-.1.2h.1v-.2l-.1.2 5 1.9.3-.8-5-1.8-.5-.4c-.2 0-.3.1-.5.2-.3.3-.4.7-.4 1.1v17.9c0 .3.1.7.2.9.1.3.3.5.6.7l5 1.8.4-.8z"/>
	<path fill="#999" d="M56.7 13.1h-.5v33c0 .6.5 1 1 1h3.9c.5 0 1-.5 1-1v-33c0-.6-.5-1-1-1h-3.9c-.5 0-1 .5-1 1h.9l.1-.1h3.9l.1.1v33l-.1.1h-3.9l-.1-.1v-33h-.4zM7.3 38.6l5-1.8c.4-.2.5-.4.6-.7.1-.3.2-.6.2-.9V17.3c0-.3 0-.6-.2-.8l-.2-.3c-.1-.1-.3-.2-.5-.2H12l-5 1.8.3.8 5-1.9-.1-.2v.2h.1l-.1-.2v.2-.2l-.1.2h.1v-.2l-.1.2s.1.2.1.5v17.9c0 .2-.1.5-.1.6l-.1.2v.1-.1.1-.1l-5 1.9.3.8z"/>
	<path fill="#999" d="M6.6 12.5V12H2.7c-.5 0-1 .5-1 1v33c0 .6.5 1 1 1h3.9c.5 0 1-.5 1-1V13c0-.6-.5-1-1-1v1l.1.1v33l-.1.1H2.7l-.1-.1v-33l.1-.1h3.9v-.5z"/>
</svg>
